!!!!SEGMENT: pl-kk--kk-i-382--005_anonim--nro-2-rorate-caeli.krn
!!!cenid: 18xx:1460
!!!COM: Anonim
!!!COM-rismID: pe30004985
!!!CDT:
!!!CNT:
!!!OPR: Nro 2
!!!OTL: Rorate Caeli
!!!OMV: 001
!!!PDT:
!!!AGN: Sacred
!!!SMS-siglum: PL-Kk
!!!SMS-shelfmark: Kk.I.382
!!!SMS-shelfwork: 002-001 M
!!!SMS-variant:
!!!SMS-altvar:
!!!NIFC-rismSourceID: 1001139087
!!!NIFC-islandoraID: pl-kk:6162
!!!URL-pdf-islandora: https://repozytorium.nifc.pl/islandora/object/pl-kk%3A6162/datastream/PDF/view
!!!URL-scan: https://polish.musicsources.pl/pl/lokalizacje/galeria/rekopisy/5994 @EN{Scan on Polish Music Herritage in Open Access Website} @PL{Skany w portalu Dziedzictwo Muzyki Polskiej w otwartym dostępie}
!!!ONB-nifc: UWAGA: obsada: S (T 1), T 2, A (B 1), B 2; S (T 1): skan 0006; A (B 1): skan 0149; T 2: skan 0076-0077; B 2: skan 0221-0222;
!!!AIN: 1 alto 1 bass 2 tenor
!!!key:
**kern	**text	**kern	**text	**kern	**text	**kern	**text
*part4	*part4	*part3	*part3	*part2	*part2	*part1	*part1
*staff4	*staff4	*staff3	*staff3	*staff2	*staff2	*staff1	*staff1
*Ibass	*	*Itenor	*	*Ialto	*	*Itenor	*
*I"Basso II	*	*I"Tenore II	*	*I"Alto vel Basso I	*	*I"Soprano vel Tenore I.	*
*I'B 2	*	*I'T 2	*	*I'A (B 1)	*	*I'S (T 1)	*
*clefF4	*	*clefC4	*	*clefC3	*	*clefC1	*
*k[b-e-]	*	*k[b-e-]	*	*k[b-e-]	*	*k[b-e-]	*
*B-:	*	*B-:	*	*B-:	*	*B-:	*
*M3/2	*	*M3/2	*	*M3/2	*	*M3/2	*
=1	=1	=1	=1	=1	=1	=1	=1
*2\right	*	*2\right	*	*2\right	*	*2\right	*
*	*	*	*	*	*	*rscale:1/2	*
!	!	!LO:TX:t=P:problem=all\right&colon; global	!	!	!	!	!
!LO:TX:b:t=P::problem=w źródle "[i]n G. mol&colon;" zapisane przed pierwszym taktem	!	!LO:TX:b:t=P:problem=w źródle "in Gmol." zapisane przed pierwszym taktem	!	!	!	!LO:TX:a:t=P:problem=w źródle "in Gmol." zapisane przed pierwszym taktem	!
!LO:TX:a:i:t=[i]n G. mol&colon;	!	!	!	!	!	!	!
!LO:TX:t=P:problem=all\right&colon; global	!	!LO:TX:b:t=in Gmol.	!	!LO:TX:t=P:problem=all\right&colon; global	!	!LO:TX:a:t=in Gmol.	!
!	!	!	!	!	!	!LO:TX:t=P:problem=w źródle takty 1-41 tego głosu zapisane w metrum 3/4, ale pozostałe głosy w 3/2	!
!	!	!	!	!	!	!LO:TX:t=P:problem=all\right&colon; global	!
!LO:TX:a:t=P:problem=w źródle "Nro. 2. Rorate" zapisane przed pierwszym taktem, na pięciolinii	!	!LO:TX:a:t=P:problem=w źródle "Nro. 2 Rorate." zapisane przed pierwszym taktem, na pięciolinii	!	!LO:TX:a:t=P:problem=w źródle "Nro 2 Rorate" zapisane przed pierwszym taktem, na pięciolinii	!	!LO:TX:a:t=P:problem=w źródle "Nro 2 Rorate" zapisane przed pierwszym taktem, na pięciolinii	!
!LO:TX:a:t=Nro. 2. Rorate	!	!LO:TX:a:t=Nro. 2 Rorate.	!	!LO:TX:a:t=Nro 2 Rorate	!	!LO:TX:a:t=Nro 2 Rorate	!
2G\	Ro-	2B-\	Ro-	2g\	Ro-	2dd\	Ro-
2B-\	-ra-	2G/	-ra-	2g\	-ra-	2b-\	-ra-
2G\	-te	2B-\	-te	2g\	-te	2dd\	-te
=2	=2	=2	=2	=2	=2	=2	=2
!LO:SIC:v:l:s=cae-	!	!LO:SIC:v:l:s=cae-	!	!LO:SIC:v:l:s=cae-	!	!LO:SIC:v:l:s=cae-	!
2F#X\	ce-	2A\	ce-	2d\	ce-	2dd\	ce-
2D\	-li	2F#X/	-li	2f#X\	-li	2dd\	-li
2F#\	ro-	2A\	ro-	2d\	ro-	2dd\	ro-
=3	=3	=3	=3	=3	=3	=3	=3
(>4G\	-ra-	2B-\	-ra-	2g\	-ra-	2dd\	-ra-
4Fn\	.	.	.	.	.	.	.
4E-X\	.	1c	-te	1g	-te	1ee-X	-te
4D\)	.	.	.	.	.	.	.
2C/	-te	.	.	.	.	.	.
=4	=4	=4	=4	=4	=4	=4	=4
!LO:SIC:v:l:s=cae-	!	!LO:SIC:v:l:s=cae-	!	!LO:SIC:v:l:s=cae-	!	!LO:SIC:v:l:s=cae-	!
(>4F\	ce-	2A\	ce-	2fn\	ce-	2cc\	ce-
4E-\	.	.	.	.	.	.	.
4D\	.	1B-	-li	1f	-li	1dd	-li
4C\)	.	.	.	.	.	.	.
2BB-/	-li	.	.	.	.	.	.
!	!	!LO:LB:g=original	!	!LO:LB:g=original	!	!LO:LB:g=original	!
=5	=5	=5	=5	=5	=5	=5	=5
(>2E-\	de-	1B-	de-	(>2g\	de-	(>4ee-X\L	de-
.	.	.	.	.	.	4dd\J	.
2F\)	.	.	.	2.f\)	.	2cc\)	.
2FF/	-su-	2A\	-su-	.	.	2cc\	-su-
.	.	.	.	4f\	-su-	.	.
!LO:LB:g=original	!	!	!	!	!	!	!
=6	=6	=6	=6	=6	=6	=6	=6
1BB-	-per	1B-	-per	1f	-per	1b-	-per
2B-\	ro-	2B-\	ro-	2f\	ro-	2dd\	ro-
=7	=7	=7	=7	=7	=7	=7	=7
2.A\	-ra-	2.A\	-ra-	2.f\	-ra-	2.cc\	-ra-
4G\	-te	4G\	-te	4f\	-te	4b-\	-te
!LO:SIC:v:l:s=cae-	!	!LO:SIC:v:l:s=cae-	!	!LO:SIC:v:l:s=cae-	!	!LO:SIC:v:l:s=cae-	!
4A\	ce-	4A\	ce-	4f\	ce-	4cc\	ce-
4F#X\	-li	4F#X/	-li	4f\	-li	4a\	-li
=8	=8	=8	=8	=8	=8	=8	=8
!LO:SIC:v:l:s=cae-	!	!LO:SIC:v:l:s=cae-	!	!LO:SIC:v:l:s=cae-	!	!LO:SIC:v:l:s=cae-	!
1B-	ce-	1B-	ce-	(>2d\	ce-	2b-\	ce-
.	.	.	.	2en\)	.	1cc	-li
2A\	-li	2A\	-li	2f\	-li	.	.
=9	=9	=9	=9	=9	=9	=9	=9
(>2G\	de-	2G/	de-	1f	de-	(>4b-\L	de-
.	.	.	.	.	.	4a\J	.
2c\)	.	2c\	.	.	.	2g\)	.
2C/	-su-	2C/	-su-	2en\	-su-	2g\	-su-
=10	=10	=10	=10	=10	=10	=10	=10
1F	-per	1F	-per	1f	-per	1a	-per
!	!	!LO:TX:a:t=P:problem=w źródle ta adnotacja zapisana za taktem 10, na pięciolinii	!	!	!	!	!
!	!	!LO:TX:b:i:t=V&colon; S&colon;	!	!	!	!	!
2F\	ro-	2A\	ro-	2f\	ro-	2cc\	ro-
!	!	!LO:PB:g=original	!	!	!	!LO:LB:g=original	!
=11	=11	=11	=11	=11	=11	=11	=11
2.D/	-ra-	2.B-\	-ra-	2.f\	-ra-	2.dd\	-ra-
4C/	-te	4B-\	-te	4e-X\	-te	4dd\	-te
!LO:SIC:v:l:s=cae-	!	!LO:SIC:v:l:s=cae-	!	!LO:SIC:v:l:s=cae-	!	!LO:SIC:v:l:s=cae-	!
4D/	ce-	4B-\	ce-	4f\	ce-	4dd\	ce-
4BB-/	-li	4B-\	-li	4d\	-li	4dd\	-li
!	!	!	!	!LO:LB:g=original	!	!	!
=12	=12	=12	=12	=12	=12	=12	=12
!LO:SIC:v:l:s=cae-	!	!LO:SIC:v:l:s=cae-	!	!	!	!LO:SIC:v:l:s=cae-	!
1E-	ce-	(<2G/	ce-	2e-\	ce-	(>2b-\	ce-
.	.	2A/)	.	1f	-li	2cc\)	.
2D\	-li	2B-\	-li	.	.	2dd\	-li
!LO:LB:g=original	!	!	!	!	!	!	!
=13	=13	=13	=13	=13	=13	=13	=13
(>2C/	de-	1B-	de-	(>2g\	de-	(>4ee-\L	de-
.	.	.	.	.	.	4dd\J	.
2F\)	.	.	.	2.f\)	.	2cc\)	.
2FF/	-su-	2A\	-su-	.	.	2cc\	-su-
.	.	.	.	4f\	-su-	.	.
=14	=14	=14	=14	=14	=14	=14	=14
2BB-/	-per	2B-\	-per	2f\	-per	2dd\	-per
(>2E-\	et	(>2B-\	et	(>2g\	et	1b-	et
2D\)	.	2d\)	.	2f\)	.	.	.
=15	=15	=15	=15	=15	=15	=15	=15
2E-\	nu-	2B-\	nu-	2g\	nu-	2b-\	nu-
2BB-/	-bes	2d\	-bes	2f\	-bes	2b-\	-bes
2B-\	et	2d\	et	2f\	et	2b-\	et
=16	=16	=16	=16	=16	=16	=16	=16
2B-\	nu-	2G/	nu-	2en\	nu-	2cc\	nu-
2B-\	-bes	2G/	-bes	2e\	-bes	2cc\	-bes
2A\	plu-	2A/	plu-	2f\	plu-	2cc\	plu-
!	!	!LO:LB:g=original	!	!	!	!LO:LB:g=original	!
=17	=17	=17	=17	=17	=17	=17	=17
2G\	-ant	2B-\	-ant	2f\	-ant	(>4b-\L	-ant
.	.	.	.	.	.	4a\)J	.
(>2c\	ju-	1c	iu-	(>2f\	iu-	1g	ju-
2C/)	.	.	.	2en\)	.	.	.
!	!	!	!	!LO:LB:g=original	!	!	!
=18	=18	=18	=18	=18	=18	=18	=18
2F\	-stum	2c\	-stum	2f\	-stum	2a\	-stum
2B-\	nu-	2B-\	nu-	2f\	nu-	2dd\	nu-
2A\	-bes	2c\	-bes	2f\	-bes	2cc\	-bes
!LO:LB:g=original	!	!	!	!	!	!	!
=19	=19	=19	=19	=19	=19	=19	=19
1B-	plu-	1B-	plu-	1.f	plu-	1dd	plu-
2F\	-ant	2c\	-ant	.	.	2cc\	-ant
=20	=20	=20	=20	=20	=20	=20	=20
2r	.	2r	.	2f\	-ant	2r	.
2G\	nu-	2B-\	nu-	2d\	nu-	2dd\	nu-
2F#X\	-bes	2A\	-bes	2f#X\	-bes	2dd\	-bes
=21	=21	=21	=21	=21	=21	=21	=21
1G	plu-	1B-	plu-	(>2d\	plu-	1.dd	plu-
.	.	.	.	2g\)	.	.	.
2D\	-ant	2A\	-ant	2f#X\	-ant	.	.
=22	=22	=22	=22	=22	=22	=22	=22
2r	.	2r	.	2r	.	2dd\	-ant
2E-\	nu-	2B-\	nu-	2g\	nu-	2b-\	nu-
2D\	-bes	2B-\	-bes	2fn\	-bes	2dd\	-bes
=23	=23	=23	=23	=23	=23	=23	=23
1E-	plu-	1B-	plu-	1g	plu-	1b-	plu-
2BB-/	-ant	2B-\	-ant	2f\	-ant	2dd\	-ant
!	!	!LO:LB:g=original	!	!LO:LB:g=original	!	!LO:LB:g=original	!
=24	=24	=24	=24	=24	=24	=24	=24
(>2D\	ju-	(>1B-	Ju-	(>2f\	ju-	(>2dd\	ju-
2E-\	.	.	.	2g\	.	1cc)	.
2F\)	.	2A\)	.	2f\)	.	.	.
=25	=25	=25	=25	=25	=25	=25	=25
1BB-	-stum	1B-	-stum	1f	-stum	1dd	-stum
2G\	a-	2B-\	a-	2g\	a-	2dd\	a-
!LO:LB:g=original	!	!	!	!	!	!	!
=26	=26	=26	=26	=26	=26	=26	=26
1G	-pe-	1B-	-pe-	1g	-pe-	1dd	-pe-
2A\	-ri-	2A\	-ri-	2f#X\	-ri-	2cc\	-ri-
=27	=27	=27	=27	=27	=27	=27	=27
1B-	-a-	1G	-a-	1g	-a-	1b-	-a-
2A\	-tur	2A\	-tur	2f#X\	-tur	2cc\	-tur
=28	=28	=28	=28	=28	=28	=28	=28
2G\	ter-	2B-\	ter-	2g\	ter-	2dd\	ter-
2A\	-ra	2A\	-ra	2f#X\	-ra	2cc\	-ra
2D\	et	2A\	et	2f#\	et	2cc\	et
=29	=29	=29	=29	=29	=29	=29	=29
(>4G\	ger-	(>1.B-	ger-	(>1.g	ger-	(>4b-\L	ger-
4F#X\	.	.	.	.	.	4a\	.
4G\	.	.	.	.	.	4b-\	.
4A\	.	.	.	.	.	4cc\	.
4B-\	.	.	.	.	.	4dd\	.
4c\	.	.	.	.	.	(>4ee-\)J	.
=30	=30	=30	=30	=30	=30	=30	=30
2.d\)	.	2.A\)	.	2.f#X\)	.	2.dd\)	.
4d\	-mi-	4A\	-mi-	4f#\	-mi-	4dd\	-mi-
2D\	-net	2A\	-net	2f#\	-net	2dd\	-net
!	!	!LO:LB:g=original	!	!LO:LB:g=original	!	!LO:LB:g=original	!
=31	=31	=31	=31	=31	=31	=31	=31
2r	.	2r	.	2r	.	2r	.
(>2d\	et	(>2d\	et	1f#X	et	(>2a\	et
2c\)	.	2c\)	.	.	.	2dd\)	.
=32	=32	=32	=32	=32	=32	=32	=32
2.B-\	ger-	2.B-\	ger-	2.g\	ger-	2.dd\	ger-
4B-\	-mi-	4B-\	-mi-	4g\	-mi-	4dd\	-mi-
2B-\	-net	2B-\	-net	2f#X\	-net	2cc\	-net
!LO:LB:g=original	!	!	!	!	!	!	!
=33	=33	=33	=33	=33	=33	=33	=33
(>2G\	sal-	(>2G/	sal-	1g	sal-	(>2b-\	sal-
2B-\)	.	2B-\)	.	.	.	2dd\)	.
2G\	-va-	2G/	-va-	2g\	-va-	2b-\	-va-
=34	=34	=34	=34	=34	=34	=34	=34
2c\	-to-	(>2c\	-to-	(>1g	-to-	1.a	-to-
2d\	.	2d\	.	.	.	.	.
2D/	.	2D/)	.	2f#X\)	.	.	.
=35	=35	=35	=35	=35	=35	=35	=35
2G\	-rem	2G/	-rem	2g\	-rem	2b-\	-rem
(>2G\	et	1B-	et	1g	et	1dd	et
2F\)	.	.	.	.	.	.	.
=36	=36	=36	=36	=36	=36	=36	=36
2.E-\	ger-	2.e-\	ger-	2.g\	ger-	2.cc\	ger-
4E-\	-mi-	4e-\	-mi-	4g\	-mi-	4cc\	-mi-
2D\	-net	2f\	-net	2fn\	-net	2bn\	-net
=37	=37	=37	=37	=37	=37	=37	=37
(>2C/	sal-	(>2e-\	sal-	1g	sal-	1.cc	sal-
2E-\)	.	2c\)	.	.	.	.	.
2C/	-va-	2e-\	-va-	2g\	-va-	.	.
!	!	!LO:LB:g=original	!	!LO:LB:g=original	!	!	!
=38	=38	=38	=38	=38	=38	=38	=38
(>2F\	-to-	1.d	-to-	2a\	-to-	2cc\	-va-
2G\	.	.	.	1g	.	(>2cc\	-to-
2GG/)	.	.	.	.	.	2bn\)	.
!	!	!	!	!	!	!LO:LB:g=original	!
=39	=39	=39	=39	=39	=39	=39	=39
2C/	-rem	2e-\	-rem	2g\	-rem	2cc\	-rem
2c\	sal-	2e-\	sal-	2g\	sal-	2cc\	sal-
2B-\	-va-	2e-\	-va-	2g\	-va-	2cc\	-va-
!LO:LB:g=original	!	!	!	!	!	!	!
=40	=40	=40	=40	=40	=40	=40	=40
1.A-X	-to-	(>1e-	-to-	(>1g	-to-	1.cc	-to-
.	.	2c\)	.	2f#X\)	.	.	.
=41	=41	=41	=41	=41	=41	=41	=41
1.G	-rem.	1.d	-rem	1.g	-rem.	1.bn	-rem,
==42||	==42||	==42||	==42||	==42||	==42||	==42||	==42||
*M4/4	*	*M4/4	*	*M4/4	*	*M4/4	*
*met(c|)	*	*met(C.)	*	*met(C.)	*	*met(C.)	*
*	*	*	*	*	*	*rscale:1	*
2r	.	2r	.	2r	.	2r	.
2G\	Be-	2G/	Be-	2d\	Be-	2b-X\	Be-
=43	=43	=43	=43	=43	=43	=43	=43
!	!	!	!	!LO:TX:t=P:problem=dźwięk nieczytelny - defekt źródła	!	!	!
2G\	-ne-	2A\	-ne-	2ryy	-ne-	2cc\	-ne-
2F#X\	-di-	2A\	-di-	2f#X\	-di-	2dd\	-di-
=44	=44	=44	=44	=44	=44	=44	=44
2G\	-xi-	2B-\	-xi-	2d\	-xi-	2dd\	-xi-
!	!	!	!	!LO:TX:a:t=P:problem=w źródle ta adnotacja zapisana za taktem 44, na pięciolinii	!	!	!
!	!	!	!	!LO:TX:b:i:t=V&colon; S&colon;	!	!	!
2Fn\	-sti	2A\	-sti	2fn\	-sti	2dd\	-sti
!	!	!	!	!LO:PB:g=original	!	!	!
=45	=45	=45	=45	=45	=45	=45	=45
2.E-X\	Do-	2.B-\	Do-	2.g\	Do-	2.dd\	Do-
4E-\	-mi-	4G/	-mi-	4g\	-mi-	4cc\	-mi-
!	!	!LO:LB:g=original	!	!	!	!	!
=46	=46	=46	=46	=46	=46	=46	=46
2D/	-ne	2A\	-ne	2fn\	-ne	2dd\	-ne
4BB-/	ter-	(>4B-\	ter-	(>4f\	ter-	4dd\	ter-
4C/	.	4A\)	.	4e-X\	.	4cc\	-ram
!	!	!	!	!	!	!LO:LB:g=original	!
=47	=47	=47	=47	=47	=47	=47	=47
4D/	.	2B-\	.	4f\	.	2b-\	ter-
4C/	.	.	.	4e-\)	.	.	.
4D/	.	2d\	-ram	2f\	-ram	2b-\	-ram
4BB-/	.	.	.	.	.	.	.
!LO:LB:g=original	!	!	!	!	!	!	!
=48	=48	=48	=48	=48	=48	=48	=48
2F\	.	2A\	ter-	2f\	ter-	2cc\	ter-
2BB-/	-ram	2B-\	-ram	2f\	-ram	2dd\	-ram
=49	=49	=49	=49	=49	=49	=49	=49
1F	tu-	(>2B-\	tu-	(>2g\	tu-	1cc	tu-
.	.	2A\)	.	2f\)	.	.	.
=50	=50	=50	=50	=50	=50	=50	=50
2BB-/	-am	2B-\	-am	2f\	-am	2dd\	-am
[>2B-\	a-	(>2B-\	a-	(>2f\	a-	2dd\	a-
=51	=51	=51	=51	=51	=51	=51	=51
2B-\]	.	2G/)	.	2en\)	.	1cc	-ver-
2A\	-ver-	2A/	-ver-	2f\	-ver-	.	.
=52	=52	=52	=52	=52	=52	=52	=52
(>2G\	-ti-	1B-	-ti-	(>2f\	-ti-	(>2dd\	-ti-
2c\)	.	.	.	2en\)	.	2g\)	.
!	!	!	!	!LO:LB:g=original	!	!	!
=53	=53	=53	=53	=53	=53	=53	=53
2F\	-sti	2A\	-sti	2f\	-sti	2cc\	-sti
2BB-/	cap-	2F/	cap-	2d\	cap-	2b-\	cap-
=54	=54	=54	=54	=54	=54	=54	=54
2E-\	-ti-	2B-\	-ti-	2B-/	-ti-	2g\	-ti-
!LO:TX:a:t=P:problem=w źródle ta adnotacja zapisana za taktem 54, na pięciolinii	!	!	!	!	!	!	!
!LO:TX:b:i:t=V&colon; S&colon;	!	!	!	!	!	!	!
2C/	-vi-	2c\	-vi-	2e-X\	-vi-	2cc\	-vi-
!LO:PB:g=original	!	!LO:LB:g=original	!	!	!	!	!
=55	=55	=55	=55	=55	=55	=55	=55
(>2F\	-ta-	(>2c\	-ta-	2c\	-ta-	2a\	-ta-
2D\	.	2d\)	.	(>2f\	.	2dd\	.
!	!	!	!	!	!	!LO:LB:g=original	!
=56	=56	=56	=56	=56	=56	=56	=56
2G\	.	(>2d\	.	2d\	.	2b-\	.
2C/	.	(>2e-\)	.	2g\	.	2ee-X\	.
=57	=57	=57	=57	=57	=57	=57	=57
2D\)	.	2d\)	.	2f#X\)	.	2a\	.
2GG/	-tem	2d\	-tem	2g\	-tem	2b-\	-tem
=58	=58	=58	=58	=58	=58	=58	=58
[>1D	Ja-	1d	Ja-	2f#X\	Ja-	1a	Ja-
.	.	.	.	(>[>2g\	.	.	.
=59	=59	=59	=59	=59	=59	=59	=59
1D]	.	1d	.	2g\]	.	[>1bn	-cob-
.	.	.	.	2f#X\)	.	.	.
=60	=60	=60	=60	=60	=60	=60	=60
!LO:N:vis=0	!	!LO:N:vis=0	!	!	!	!	!
1GG	-cob.	1d	-cob.	1g	-cob.	1bn]	-.
!	!	!	!	!LO:LB:g=original	!	!	!
==61||	==61||	==61||	==61||	==61||	==61||	==61||	==61||
*M3/2	*	*M3/2	*	*M3/2	*	*M3/2	*
*	*	*	*	*	*	*rscale:1/2	*
!	!	!	!	!	!	!LO:TX:t=P:problem=w źródle takty 61-86 tego głosu zapisane w metrum 3/4, ale pozostałe głosy w 3/2	!
2.BB-/	Glo-	2.B-\	Glo-	2.fn\	Glo-	2.dd\	Glo-
4BB-/	-ri-	4B-\	-ri-	4f\	-ri-	4dd\	-ri-
2BB-/	-a	2B-\	-a	2f\	-a	2dd\	-a
=62	=62	=62	=62	=62	=62	=62	=62
2D\	pa-	2B-\	pa-	2f\	pa-	2dd\	pa-
2E-\	-tri	2B-\	-tri	2g\	-tri	2b-\	-tri
2BB-/	et	2B-\	et	2f\	et	2dd\	et
!	!	!LO:LB:g=original	!	!	!	!	!
=63	=63	=63	=63	=63	=63	=63	=63
2.F\	fi-	2.A\	fi-	2.f\	fi-	2.cc\	fi-
4F\	-li-	4A\	-li-	4f\	-li-	4cc\	-li-
2F\	-o	2A\	-o	2f\	-o	2cc\	-o
!LO:LB:g=original	!	!	!	!	!	!LO:LB:g=original	!
=64	=64	=64	=64	=64	=64	=64	=64
2F\	glo-	1.r	.	2a\	glo-	1.r	.
4F\	-ri-	.	.	4a\	-ri-	.	.
!	!	!LO:TX:a:t=1.	!	!	!	!LO:TX:a:t=1.	!
4G\	-a	.	.	4b-\	-a	.	.
4F\	et	.	.	4a\	et	.	.
4E-\	spi-	.	.	4g\	spi-	.	.
=65	=65	=65	=65	=65	=65	=65	=65
2.D\	-ri-	2B-\	glo-	2.f\	-ri-	2dd\	glo-
.	.	4B-\	-ri-	.	.	4dd\	-ri-
4D\	-tu-	4c\	-a	4f\	-tu-	4ee-X\	-a
2D\	-i	4B-\	et	2f\	-i	4dd\	et
.	.	4A\	spi-	.	.	4cc\	spi-
!	!	!	!	!LO:LB:g=original	!	!	!
=66	=66	=66	=66	=66	=66	=66	=66
2G\	glo-	2.G/	-ri-	2b-\	glo-	2.b-\	-ri-
4G\	-ri-	.	.	4b-\	-ri-	.	.
4A-X\	-a	4G/	-tu-	4cc\	-a	4b-\	-tu-
4G\	et	2G/	-i	4b-\	et	2b-\	-i
4F\	spi-	.	.	4a\	spi-	.	.
=67	=67	=67	=67	=67	=67	=67	=67
2.E-\	-ri-	2c\	glo-	2.g\	-ru-	2ee-X\	glo-
.	.	4c\	-ri-	.	.	4ee-\	-ri-
4E-\	-tu-	4d\	-a	4g\	-tu-	4ff\	-a
2E-\	-i	4c\	et	2g\	-i	4ee-\	et
.	.	4B-\	spi-	.	.	4dd\	spi-
!	!	!LO:LB:g=original	!	!	!	!	!
=68	=68	=68	=68	=68	=68	=68	=68
(>2F\	san-	2.A\	-ri-	(>1.f	San-	2.cc\	-ri-
2E-\	.	.	.	.	.	.	.
.	.	4A\	-tu-	.	.	4cc\	-tu-
2D\	.	2B-\	-i	.	.	2dd\	-i
!	!	!	!	!	!	!LO:LB:g=original	!
=69	=69	=69	=69	=69	=69	=69	=69
2E-\	.	(>1B-	san-	2g\	.	1.cc	san-
2F\	.	.	.	1f)	.	.	.
2FF/)	.	2A\)	.	.	.	.	.
!LO:LB:g=original	!	!	!	!	!	!	!
=70	=70	=70	=70	=70	=70	=70	=70
2BB-/	-cto	2B-\	-cto	2f\	-cto	2dd\	-cto
2B-\	si-	2B-\	si-	2f\	si-	2dd\	si-
2A\	-cut	2c\	-cut	2f\	-cut	2cc\	-cut
=71	=71	=71	=71	=71	=71	=71	=71
1B-	e-	1B-	e-	1f	e-	1dd	e-
2F\	-rat	2A\	-rat	2f\	-rat	2cc\	-rat
!	!	!	!	!LO:LB:g=original	!	!	!
=72	=72	=72	=72	=72	=72	=72	=72
1G	in	1d	in	1d	in	1b-	in
2F#X\	prin-	2d\	prin-	2f#X\	prin-	2a\	prin-
=73	=73	=73	=73	=73	=73	=73	=73
2.G\	-ci-	2.d\	-ci-	2.d\	-ci-	2.b-\	-ci-
4G\	-pi-	4d\	-pi-	4d\	-pi-	4b-\	-pi-
2D\	-o	2d\	-o	2f#X\	-o	2a\	-o
!	!	!LO:LB:g=original	!	!	!	!	!
=74	=74	=74	=74	=74	=74	=74	=74
1E-	et	1B-	et	1g	et	2g\	et
.	.	.	.	.	.	2b-\	nunc
2C/	nunc	2e-\	nunc	2g\	nunc	2cc\	et
!	!	!	!	!	!	!LO:LB:g=original	!
=75	=75	=75	=75	=75	=75	=75	=75
2F\	et	2d\	et	2a-X\	et	(>1cc	sem-
2G\	sem-	1d	sem-	1g	sem-	.	.
2GG/	.	.	.	.	.	2bn\)	.
=76	=76	=76	=76	=76	=76	=76	=76
2C/	-per	2e-\	-per	2g\	-per	2cc\	-per
2F\	et	2A\	et	2fn\	et	2cc\	et
2F\	in	2A\	in	2f\	in	2cc\	in
!LO:LB:g=original	!	!	!	!	!	!	!
=77	=77	=77	=77	=77	=77	=77	=77
!LO:SIC:v:l:s=sae-	!	!LO:SIC:v:l:s=sae-	!	!LO:SIC:v:l:s=sae-	!	!LO:SIC:v:l:s=sae-	!
2.F\	se-	2.B-\	se-	2.d\	se-	2.dd\	se-
4F\	-cu-	4B-\	-cu-	4f\	-cu-	4dd\	-cu-
!	!	!LO:TX:a:t=P:problem=w źródle ta adnotacja zapisana za taktem 77, na pięciolinii	!	!	!	!	!
!	!	!LO:TX:b:i:t=V&colon; S&colon;	!	!	!	!	!
2F\	-la	2B-\	-la,	2f\	-la	2cc\	-la
!	!	!LO:PB:g=original	!	!LO:LB:g=original	!	!	!
=78	=78	=78	=78	=78	=78	=78	=78
2r	.	2r	.	2r	.	2r	.
2B-\	et	2d\	et	2f\	et	2dd\	et
2B-\	in	2B-\	in	2f\	in	2dd\	in
=79	=79	=79	=79	=79	=79	=79	=79
!LO:SIC:v:l:s=sae-	!	!LO:SIC:v:l:s=sae-	!	!LO:SIC:v:l:s=sae-	!	!LO:SIC:v:l:s=sae-	!
2.B-\	se-	2.e-X\	se-	2.g\	se-	2.ee-\	se-
4B-\	-cu-	4e-\	-cu-	4g\	-cu-	4ee-\	-cu-
!	!	!	!	!	!	!LO:TX:a:t=P:problem=w źródle ta adnotacja zapisana za taktem 79, na pięciolinii	!
!	!	!	!	!	!	!LO:TX:b:i:t=V&colon; S&colon;	!
2B-\	-la	2B-\	-la	2f\	-la	2dd\	-la
!	!	!	!	!	!	!LO:PB:g=original	!
=80	=80	=80	=80	=80	=80	=80	=80
!LO:SIC:v:l:s=sae-	!	!LO:SIC:v:l:s=sae-	!	!LO:SIC:v:l:s=sae-	!	!LO:SIC:v:l:s=sae-	!
2.An\	se-	2.c\	se-	2.f\	se-	2.cc#X\	se-
4A\	-cu-	4c\	-cu-	4f\	-cu-	4cc#\	-cu-
!	!	!LO:N:vis=2.	!	!	!	!	!
2B-\	-lo-	2B-\	-lo-	2f\	-lo-	2dd\	-lo-
=81	=81	=81	=81	=81	=81	=81	=81
2G\	-rum	2B-\	-rum	2en\	-rum	2dd\	-rum
(>2A\	a-	1A	a-	1e	a-	(>2dd\	a-
2AA/)	.	.	.	.	.	2cc#X\)	.
=82	=82	=82	=82	=82	=82	=82	=82
2D\	-men	2A\	-men	2f#X\	-men	2dd\	-men
2G\	et	2B-\	et	2g\	et	2dd\	et
2D\	in	2A\	in	2f#\	in	2dd\	in
!LO:LB:g=original	!	!	!	!	!	!	!
=83	=83	=83	=83	=83	=83	=83	=83
!LO:SIC:v:l:s=sae-	!	!LO:SIC:v:l:s=sae-	!	!LO:SIC:v:l:s=sae-	!	!LO:SIC:v:l:s=sae-	!
2.G\	se-	2.B-\	se-	2.g\	se-	2.dd\	se-
4G\	-cu-	4B-\	-cu-	4g\	-cu-	4dd\	-cu-
2F\	-la	2A\	-la	2a\	-la	2dd\	-la
!	!	!LO:LB:g=original	!	!LO:LB:g=original	!	!	!
=84	=84	=84	=84	=84	=84	=84	=84
!LO:SIC:v:l:s=sae-	!	!LO:SIC:v:l:s=sae-	!	!LO:SIC:v:l:s=sae-	!	!LO:SIC:v:l:s=sae-	!
2.F\	se-	2.B-\	se-	2.g\	se-	2.dd\	se-
4F\	-cu-	4B-\	-cu-	4g\	-cu-	4dd\	-cu-
2E-X\	-lo-	2c\	-lo-	2g\	-lo-	2ee-X\	-lo-
=85	=85	=85	=85	=85	=85	=85	=85
2C/	-rum	2B-\	-rum	2g\	-rum	2ee-\	-rum
1D	a-	1A	a-	(>2g\	a-	1dd	a-
.	.	.	.	2f#X\)	.	.	.
=86	=86	=86	=86	=86	=86	=86	=86
*	*	*	*	*	*	*rscale:1	*
!LO:N:vis=0	!	!	!	!	!	!LO:N:vis=0:	!
1.GG	-men.	1.B-	-men.	1.g	-men.	1.dd	-men.
==	==	==	==	==	==	==	==
*-	*-	*-	*-	*-	*-	*-	*-
!!!system-decoration: [(s1,s2,s3,s4)]
!!!RDF**kern: > = above
!!!RDF**kern: < = below
!!!EED: Antoni Szymański
!!!EEV: 2021-02-01
!!!ENC: Andrzej Kubiczek
!!!END: 2021-01-27
